assets/img/braze_icons/luggage-01.svg

<svg fill="none" height="24" viewBox="0 0 24 24" width="24" xmlns="http://www.w3.org/2000/svg"><path clip-rule="evenodd" d="m15.2413 1h-6.4826c-.80494-.000011-1.46934-.000021-2.01052.0442-.5621.04592-1.0788.14449-1.56414.39178-.75265.38349-1.36457.99541-1.74806 1.74806-.24729.48534-.34586 1.00204-.39178 1.56414-.04422.54118-.04421 1.20553-.0442 2.01048v8.48264c-.00001.8049-.00002 1.4693.0442 2.0105.04592.5621.14449 1.0788.39178 1.5642.38349.7526.99541 1.3645 1.74806 1.748.48534.2473 1.00204.3459 1.56414.3918.08115.0066.16507.0123.25182.0171v1.0271c0 .5523.44772 1 1 1 .55229 0 1-.4477 1-1v-1h6v1c0 .5523.4477 1 1 1s1-.4477 1-1v-1.0271c.0868-.0048.1707-.0105.2518-.0171.5621-.0459 1.0788-.1445 1.5642-.3918.7526-.3835 1.3645-.9954 1.748-1.748.2473-.4854.3459-1.0021.3918-1.5642.0442-.5412.0442-1.2055.0442-2.0105v-8.48262c0-.80496 0-1.46931-.0442-2.0105-.0459-.5621-.1445-1.0788-.3918-1.56414-.3835-.75265-.9954-1.36457-1.748-1.74806-.4854-.24729-1.0021-.34586-1.5642-.39178-.5412-.044221-1.2056-.044211-2.0105-.0442zm-5.7413 5c.5523 0 1 .44772 1 1v8c0 .5523-.4477 1-1 1-.55228 0-1-.4477-1-1v-8c0-.55228.44772-1 1-1zm6 1c0-.55228-.4477-1-1-1s-1 .44772-1 1v8c0 .5523.4477 1 1 1s1-.4477 1-1z" fill="#801ed7" fill-rule="evenodd"/></svg>

<svg width="24" height="24" viewBox="0 0 24 24" fill="none" xmlns="http://www.w3.org/2000/svg">
<path fill-rule="evenodd" clip-rule="evenodd" d="M15.2413 1H8.7587C7.95376 0.999989 7.28936 0.999979 6.74818 1.0442C6.18608 1.09012 5.66938 1.18869 5.18404 1.43598C4.43139 1.81947 3.81947 2.43139 3.43598 3.18404C3.18869 3.66938 3.09012 4.18608 3.0442 4.74818C2.99998 5.28936 2.99999 5.95371 3 6.75866V15.2413C2.99999 16.0462 2.99998 16.7106 3.0442 17.2518C3.09012 17.8139 3.18869 18.3306 3.43598 18.816C3.81947 19.5686 4.43139 20.1805 5.18404 20.564C5.66938 20.8113 6.18608 20.9099 6.74818 20.9558C6.82933 20.9624 6.91325 20.9681 7 20.9729V22C7 22.5523 7.44772 23 8 23C8.55229 23 9 22.5523 9 22V21H15V22C15 22.5523 15.4477 23 16 23C16.5523 23 17 22.5523 17 22V20.9729C17.0868 20.9681 17.1707 20.9624 17.2518 20.9558C17.8139 20.9099 18.3306 20.8113 18.816 20.564C19.5686 20.1805 20.1805 19.5686 20.564 18.816C20.8113 18.3306 20.9099 17.8139 20.9558 17.2518C21 16.7106 21 16.0463 21 15.2413V6.75868C21 5.95372 21 5.28937 20.9558 4.74818C20.9099 4.18608 20.8113 3.66938 20.564 3.18404C20.1805 2.43139 19.5686 1.81947 18.816 1.43598C18.3306 1.18869 17.8139 1.09012 17.2518 1.0442C16.7106 0.999979 16.0462 0.999989 15.2413 1ZM9.5 6C10.0523 6 10.5 6.44772 10.5 7V15C10.5 15.5523 10.0523 16 9.5 16C8.94772 16 8.5 15.5523 8.5 15V7C8.5 6.44772 8.94772 6 9.5 6ZM15.5 7C15.5 6.44772 15.0523 6 14.5 6C13.9477 6 13.5 6.44772 13.5 7V15C13.5 15.5523 13.9477 16 14.5 16C15.0523 16 15.5 15.5523 15.5 15V7Z" fill="#801ED7"/>
</svg>
